Newaita-dark/apps/16/audacious.svg

<?xml version="1.0" encoding="UTF-8"?>
<svg xmlns="http://www.w3.org/2000/svg" xmlns:xlink="http://www.w3.org/1999/xlink" width="16pt" height="16pt" viewBox="0 0 16 16" version="1.1">
<defs>
<linearGradient id="linear0" gradientUnits="userSpaceOnUse" x1="254.000031" y1="222.916656" x2="254.000046" y2="249.374985" gradientTransform="matrix(0.031253,0,0,0.031253,-0.00000190753,7.546295)">
<stop offset="0" style="stop-color:rgb(0%,0%,0%);stop-opacity:0.27451;"/>
<stop offset="1" style="stop-color:rgb(0%,0%,0%);stop-opacity:0;"/>
</linearGradient>
<radialGradient id="radial0" gradientUnits="userSpaceOnUse" cx="450.908936" cy="189.579361" fx="450.908936" fy="189.579361" r="21.166656" gradientTransform="matrix(0.0000000870852,-0.0390662,-0.0703192,-0.0000000507693,25.073042,32.459189)">
<stop offset="0" style="stop-color:rgb(0%,0%,0%);stop-opacity:0.313725;"/>
<stop offset="0.222222" style="stop-color:rgb(0%,0%,0%);stop-opacity:0.27451;"/>
<stop offset="1" style="stop-color:rgb(0%,0%,0%);stop-opacity:0;"/>
</radialGradient>
<radialGradient id="radial1" gradientUnits="userSpaceOnUse" cx="450.908936" cy="189.579361" fx="450.908936" fy="189.579361" r="21.166656" gradientTransform="matrix(-0.0000000870852,0.0390662,0.0703192,0.0000000507693,-9.196524,-3.102217)">
<stop offset="0" style="stop-color:rgb(0%,0%,0%);stop-opacity:0.313725;"/>
<stop offset="0.222222" style="stop-color:rgb(0%,0%,0%);stop-opacity:0.27451;"/>
<stop offset="1" style="stop-color:rgb(0%,0%,0%);stop-opacity:0;"/>
</radialGradient>
<radialGradient id="radial2" gradientUnits="userSpaceOnUse" cx="450.908936" cy="189.579361" fx="450.908936" fy="189.579361" r="21.166656" gradientTransform="matrix(-0.0000000870852,-0.0390662,0.0703192,-0.0000000507693,-9.196524,32.459189)">
<stop offset="0" style="stop-color:rgb(0%,0%,0%);stop-opacity:0.313725;"/>
<stop offset="0.222222" style="stop-color:rgb(0%,0%,0%);stop-opacity:0.27451;"/>
<stop offset="1" style="stop-color:rgb(0%,0%,0%);stop-opacity:0;"/>
</radialGradient>
<radialGradient id="radial3" gradientUnits="userSpaceOnUse" cx="450.908936" cy="189.579361" fx="450.908936" fy="189.579361" r="21.166656" gradientTransform="matrix(0.0000000870852,0.0390662,-0.0703192,0.0000000507693,25.073041,-3.102217)">
<stop offset="0" style="stop-color:rgb(0%,0%,0%);stop-opacity:0.313725;"/>
<stop offset="0.222222" style="stop-color:rgb(0%,0%,0%);stop-opacity:0.27451;"/>
<stop offset="1" style="stop-color:rgb(0%,0%,0%);stop-opacity:0;"/>
</radialGradient>
<linearGradient id="linear1" gradientUnits="userSpaceOnUse" x1="254" y1="254.666672" x2="254" y2="32.416664" >
<stop offset="0" style="stop-color:rgb(25.882353%,25.882353%,25.882353%);stop-opacity:1;"/>
<stop offset="1" style="stop-color:rgb(38.039216%,38.039216%,38.039216%);stop-opacity:1;"/>
</linearGradient>
<linearGradient id="linear2" gradientUnits="userSpaceOnUse" x1="960" y1="1695.118164" x2="960" y2="175.118134" >
<stop offset="0" style="stop-color:rgb(61.960784%,61.960784%,61.960784%);stop-opacity:1;"/>
<stop offset="1" style="stop-color:rgb(74.117647%,74.117647%,74.117647%);stop-opacity:1;"/>
</linearGradient>
<linearGradient id="linear3" gradientUnits="userSpaceOnUse" x1="254" y1="-142.208328" x2="254" y2="207.041672" >
<stop offset="0" style="stop-color:rgb(38.039216%,38.039216%,38.039216%);stop-opacity:1;"/>
<stop offset="1" style="stop-color:rgb(25.882353%,25.882353%,25.882353%);stop-opacity:1;"/>
</linearGradient>
<linearGradient id="linear4" gradientUnits="userSpaceOnUse" x1="243.416672" y1="-126.333344" x2="243.416672" y2="191.166672" >
<stop offset="0" style="stop-color:rgb(87.843137%,87.843137%,87.843137%);stop-opacity:1;"/>
<stop offset="1" style="stop-color:rgb(93.333333%,93.333333%,93.333333%);stop-opacity:1;"/>
</linearGradient>
<linearGradient id="linear5" gradientUnits="userSpaceOnUse" x1="960" y1="1255.118164" x2="960" y2="615.118103" >
<stop offset="0" style="stop-color:rgb(25.882353%,25.882353%,25.882353%);stop-opacity:1;"/>
<stop offset="1" style="stop-color:rgb(38.039216%,38.039216%,38.039216%);stop-opacity:1;"/>
</linearGradient>
</defs>
<g id="surface1">
<path style=" stroke:none;fill-rule:nonzero;fill:url(#linear0);" d="M 3.96875 14.679688 L 11.90625 14.679688 L 11.90625 15.339844 L 3.96875 15.339844 Z M 3.96875 14.679688 "/>
<path style=" stroke:none;fill-rule:nonzero;fill:url(#radial0);" d="M 11.90625 14.679688 L 13.230469 14.679688 L 13.230469 14.015625 L 11.90625 14.015625 Z M 11.90625 14.679688 "/>
<path style=" stroke:none;fill-rule:nonzero;fill:url(#radial1);" d="M 3.96875 14.679688 L 2.644531 14.679688 L 2.644531 15.339844 L 3.96875 15.339844 Z M 3.96875 14.679688 "/>
<path style=" stroke:none;fill-rule:nonzero;fill:url(#radial2);" d="M 3.96875 14.679688 L 2.644531 14.679688 L 2.644531 14.015625 L 3.96875 14.015625 Z M 3.96875 14.679688 "/>
<path style=" stroke:none;fill-rule:nonzero;fill:url(#radial3);" d="M 11.90625 14.679688 L 13.230469 14.679688 L 13.230469 15.339844 L 11.90625 15.339844 Z M 11.90625 14.679688 "/>
<path style="fill-rule:nonzero;fill:url(#linear1);stroke-width:3;stroke-linecap:round;stroke-linejoin:miter;stroke:rgb(12.941177%,12.941177%,12.941177%);stroke-opacity:1;stroke-miterlimit:4;" d="M 105.86489 32.476367 L 402.211591 32.476367 C 413.835481 32.476367 423.334574 41.850472 423.334574 53.59935 L 423.334574 233.457174 C 423.334574 245.206053 413.835481 254.705145 402.211591 254.705145 L 105.86489 254.705145 C 94.116012 254.705145 84.616919 245.206053 84.616919 233.457174 L 84.616919 53.59935 C 84.616919 41.850472 94.116012 32.476367 105.86489 32.476367 Z M 105.86489 32.476367 " transform="matrix(0.031253,0,0,0.031253,0,6.719392)"/>
<path style="fill-rule:nonzero;fill:url(#linear2);stroke-width:11.338583;stroke-linecap:round;stroke-linejoin:miter;stroke:rgb(12.941177%,12.941177%,12.941177%);stroke-opacity:1;stroke-miterlimit:4;" d="M 959.908316 175.258813 C 778.508316 175.258813 612.224982 238.087459 481.843731 343.43173 L 450.665606 312.726001 C 419.487481 281.547876 368.941126 281.547876 337.763001 312.726001 C 306.584876 344.376522 306.584876 394.450481 337.763001 426.101002 L 368.46873 456.806731 C 263.124459 587.187982 199.823417 753.471316 199.823417 935.343712 C 199.823417 1116.743713 263.124459 1283.027047 368.46873 1413.408298 L 337.763001 1444.114027 C 306.584876 1475.764548 306.584876 1525.838507 337.763001 1557.489028 C 368.941126 1588.667153 419.487481 1588.667153 450.665606 1557.489028 L 481.843731 1526.783298 C 612.224982 1632.12757 778.508316 1694.956216 959.908316 1694.956216 C 1141.780713 1694.956216 1308.064047 1632.12757 1438.445298 1526.783298 L 1469.151027 1557.489028 C 1500.329152 1588.667153 1550.875507 1588.667153 1582.053632 1557.489028 C 1613.704153 1525.838507 1613.704153 1475.764548 1582.053632 1444.114027 L 1551.347902 1413.408298 C 1657.16457 1283.027047 1719.993216 1116.743713 1719.993216 935.343712 C 1719.993216 753.471316 1657.16457 587.187982 1551.347902 456.806731 L 1582.053632 426.101002 C 1613.704153 394.450481 1613.704153 344.376522 1582.053632 312.726001 C 1550.875507 281.547876 1500.329152 281.547876 1469.151027 312.726001 L 1438.445298 343.43173 C 1308.064047 238.087459 1141.780713 175.258813 959.908316 175.258813 Z M 959.908316 175.258813 " transform="matrix(0.00826902,0,0,0.00826902,0.000000175425,0.000000346814)"/>
<path style="fill-rule:nonzero;fill:url(#linear3);stroke-width:3;stroke-linecap:round;stroke-linejoin:miter;stroke:rgb(12.941177%,12.941177%,12.941177%);stroke-opacity:1;stroke-miterlimit:4;" d="M 253.975747 -142.256947 C 350.466532 -142.256947 428.584072 -66.389192 428.584072 27.10188 L 428.584072 37.725866 C 428.584072 131.216938 350.466532 207.084693 253.975747 207.084693 C 157.609949 207.084693 79.367421 131.216938 79.367421 37.725866 L 79.367421 27.10188 C 79.367421 -66.389192 157.609949 -142.256947 253.975747 -142.256947 Z M 253.975747 -142.256947 " transform="matrix(0.031253,0,0,0.031253,0,6.719392)"/>
<path style="fill-rule:nonzero;fill:url(#linear4);stroke-width:3;stroke-linecap:round;stroke-linejoin:miter;stroke:rgb(12.941177%,12.941177%,12.941177%);stroke-opacity:1;stroke-miterlimit:4;" d="M 253.975747 -126.383462 C 341.717368 -126.383462 412.710588 -55.265254 412.710588 32.476367 C 412.710588 120.093 341.717368 191.211209 253.975747 191.211209 C 166.359113 191.211209 95.240905 120.093 95.240905 32.476367 C 95.240905 -55.265254 166.359113 -126.383462 253.975747 -126.383462 Z M 253.975747 -126.383462 " transform="matrix(0.031253,0,0,0.031253,0,6.719392)"/>
<path style="fill-rule:nonzero;fill:url(#linear5);stroke-width:11.338583;stroke-linecap:round;stroke-linejoin:round;stroke:rgb(12.941177%,12.941177%,12.941177%);stroke-opacity:1;stroke-miterlimit:4;" d="M 959.908384 596.163573 C 868.735983 596.163573 787.956291 638.6792 741.661497 699.618266 C 741.189101 699.618266 741.189101 700.090662 741.189101 700.090662 C 727.489622 719.458892 721.348475 737.409935 721.820871 754.416185 C 721.820871 771.422436 729.851601 786.066708 740.716706 795.514625 C 762.919311 813.465668 799.293792 812.04848 815.827647 785.121916 C 841.337023 744.968268 898.024526 713.790142 959.908384 713.790142 C 1000.534428 713.790142 1036.908909 726.54483 1061.945889 745.440664 C 1086.98287 764.336499 1101.154745 788.428687 1101.154745 814.882855 L 1101.154745 908.417235 C 1060.528702 888.104213 1011.871928 876.294317 959.908384 876.294317 C 889.521401 876.294317 825.74796 897.079735 778.98077 932.509424 C 731.741184 967.939113 701.035454 1018.48547 701.035454 1075.172973 C 701.035454 1131.860476 731.741184 1182.406833 778.98077 1217.836522 C 825.74796 1252.793816 889.521401 1274.051629 959.908384 1274.051629 C 1012.344324 1274.051629 1061.001097 1262.241733 1102.099537 1241.456315 C 1103.516725 1247.597461 1106.3511 1252.793816 1110.130267 1256.572983 C 1114.854225 1261.296941 1120.522976 1264.131316 1126.191726 1266.0209 C 1137.056831 1270.272463 1148.866727 1271.217254 1160.676624 1270.744858 C 1172.48652 1270.744858 1183.824021 1268.855275 1194.216729 1264.603712 C 1199.413084 1262.714129 1204.609438 1260.35215 1209.333397 1255.628191 C 1214.057355 1251.376628 1218.781314 1243.818295 1218.781314 1235.315169 L 1218.781314 814.882855 C 1218.781314 692.059932 1101.627141 596.163573 959.908384 596.163573 Z M 959.908384 993.920886 C 1001.006823 993.920886 1037.8537 1004.78599 1063.363077 1020.375054 C 1088.400057 1035.964117 1101.154745 1055.332347 1101.154745 1075.172973 C 1101.154745 1094.541203 1088.400057 1113.909434 1063.363077 1129.970893 C 1037.8537 1145.559956 1001.006823 1156.425061 959.908384 1156.425061 C 918.809944 1156.425061 881.963067 1145.559956 856.926087 1129.970893 C 831.41671 1113.909434 819.134418 1094.541203 819.134418 1075.172973 C 819.134418 1055.332347 831.41671 1035.964117 856.926087 1020.375054 C 881.963067 1004.78599 918.809944 993.920886 959.908384 993.920886 Z M 959.908384 993.920886 " transform="matrix(0.00826902,0,0,0.00826902,0,0)"/>
</g>
</svg>

<svg xmlns="http://www.w3.org/2000/svg" width="16pt" height="16pt" viewBox="0 0 16 16"><defs><linearGradient id="a" gradientUnits="userSpaceOnUse" x1="254" y1="222.917" x2="254" y2="249.375" gradientTransform="matrix(.03125 0 0 .03125 0 7.546)"><stop offset="0" stop-opacity=".275"/><stop offset="1" stop-opacity="0"/></linearGradient><radialGradient id="b" gradientUnits="userSpaceOnUse" cx="450.909" cy="189.579" fx="450.909" fy="189.579" r="21.167" gradientTransform="matrix(0 -.03907 -.07032 0 25.073 32.46)"><stop offset="0" stop-opacity=".314"/><stop offset=".222" stop-opacity=".275"/><stop offset="1" stop-opacity="0"/></radialGradient><radialGradient id="c" gradientUnits="userSpaceOnUse" cx="450.909" cy="189.579" fx="450.909" fy="189.579" r="21.167" gradientTransform="matrix(0 .03907 .07032 0 -9.197 -3.102)"><stop offset="0" stop-opacity=".314"/><stop offset=".222" stop-opacity=".275"/><stop offset="1" stop-opacity="0"/></radialGradient><radialGradient id="d" gradientUnits="userSpaceOnUse" cx="450.909" cy="189.579" fx="450.909" fy="189.579" r="21.167" gradientTransform="matrix(0 -.03907 .07032 0 -9.197 32.46)"><stop offset="0" stop-opacity=".314"/><stop offset=".222" stop-opacity=".275"/><stop offset="1" stop-opacity="0"/></radialGradient><radialGradient id="e" gradientUnits="userSpaceOnUse" cx="450.909" cy="189.579" fx="450.909" fy="189.579" r="21.167" gradientTransform="matrix(0 .03907 -.07032 0 25.073 -3.102)"><stop offset="0" stop-opacity=".314"/><stop offset=".222" stop-opacity=".275"/><stop offset="1" stop-opacity="0"/></radialGradient><linearGradient id="f" gradientUnits="userSpaceOnUse" x1="254" y1="254.667" x2="254" y2="32.417"><stop offset="0" stop-color="#424242"/><stop offset="1" stop-color="#616161"/></linearGradient><linearGradient id="g" gradientUnits="userSpaceOnUse" x1="960" y1="1695.118" x2="960" y2="175.118"><stop offset="0" stop-color="#9e9e9e"/><stop offset="1" stop-color="#bdbdbd"/></linearGradient><linearGradient id="h" gradientUnits="userSpaceOnUse" x1="254" y1="-142.208" x2="254" y2="207.042"><stop offset="0" stop-color="#616161"/><stop offset="1" stop-color="#424242"/></linearGradient><linearGradient id="i" gradientUnits="userSpaceOnUse" x1="243.417" y1="-126.333" x2="243.417" y2="191.167"><stop offset="0" stop-color="#e0e0e0"/><stop offset="1" stop-color="#eee"/></linearGradient><linearGradient id="j" gradientUnits="userSpaceOnUse" x1="960" y1="1255.118" x2="960" y2="615.118"><stop offset="0" stop-color="#424242"/><stop offset="1" stop-color="#616161"/></linearGradient></defs><path d="M3.969 14.68h7.937v.66H3.97zm0 0" fill="url(#a)"/><path d="M11.906 14.68h1.324v-.664h-1.324zm0 0" fill="url(#b)"/><path d="M3.969 14.68H2.645v.66h1.324zm0 0" fill="url(#c)"/><path d="M3.969 14.68H2.645v-.664h1.324zm0 0" fill="url(#d)"/><path d="M11.906 14.68h1.324v.66h-1.324zm0 0" fill="url(#e)"/><path d="M105.865 32.476h296.347c11.623 0 21.123 9.374 21.123 21.123v179.858c0 11.75-9.5 21.248-21.123 21.248H105.865c-11.749 0-21.248-9.499-21.248-21.248V53.6c0-11.749 9.499-21.123 21.248-21.123zm0 0" transform="matrix(.03125 0 0 .03125 0 6.72)" fill="url(#f)" stroke-width="3" stroke-linecap="round" stroke="#212121"/><path d="M959.908 175.259c-181.4 0-347.683 62.828-478.064 168.173l-31.178-30.706c-31.179-31.178-81.725-31.178-112.903 0-31.178 31.65-31.178 81.724 0 113.375l30.706 30.706C263.124 587.188 199.823 753.47 199.823 935.344c0 181.4 63.301 347.683 168.646 478.064l-30.706 30.706c-31.178 31.65-31.178 81.725 0 113.375 31.178 31.178 81.724 31.178 112.903 0l31.178-30.706c130.381 105.345 296.664 168.173 478.064 168.173 181.873 0 348.156-62.828 478.537-168.173l30.706 30.706c31.178 31.178 81.725 31.178 112.903 0 31.65-31.65 31.65-81.724 0-113.375l-30.706-30.706c105.817-130.381 168.645-296.664 168.645-478.064 0-181.873-62.828-348.156-168.645-478.537l30.706-30.706c31.65-31.65 31.65-81.724 0-113.375-31.178-31.178-81.725-31.178-112.903 0l-30.706 30.706c-130.381-105.345-296.664-168.173-478.537-168.173zm0 0" transform="matrix(.00827 0 0 .00827 0 0)" fill="url(#g)" stroke-width="11.339" stroke-linecap="round" stroke="#212121"/><path d="M253.976-142.257c96.49 0 174.608 75.868 174.608 169.359v10.624c0 93.49-78.117 169.359-174.608 169.359-96.366 0-174.609-75.868-174.609-169.36V27.103c0-93.491 78.243-169.359 174.609-169.359zm0 0" transform="matrix(.03125 0 0 .03125 0 6.72)" fill="url(#h)" stroke-width="3" stroke-linecap="round" stroke="#212121"/><path d="M253.976-126.383c87.741 0 158.735 71.118 158.735 158.86 0 87.616-70.994 158.734-158.735 158.734-87.617 0-158.735-71.118-158.735-158.735 0-87.741 71.118-158.86 158.735-158.86zm0 0" transform="matrix(.03125 0 0 .03125 0 6.72)" fill="url(#i)" stroke-width="3" stroke-linecap="round" stroke="#212121"/><path d="M959.908 596.164c-91.172 0-171.952 42.515-218.247 103.454-.472 0-.472.473-.472.473-13.7 19.368-19.84 37.319-19.368 54.325 0 17.006 8.03 31.65 18.896 41.099 22.202 17.95 58.577 16.533 75.11-10.393 25.51-40.154 82.198-71.332 144.081-71.332 40.626 0 77 12.755 102.038 31.65 25.037 18.896 39.209 42.989 39.209 69.443v93.534c-40.626-20.313-89.283-32.123-141.247-32.123-70.387 0-134.16 20.786-180.927 56.215-47.24 35.43-77.946 85.976-77.946 142.664 0 56.687 30.706 107.234 77.946 142.664 46.767 34.957 110.54 56.215 180.927 56.215 52.436 0 101.093-11.81 142.192-32.596 1.417 6.141 4.251 11.338 8.03 15.117 4.724 4.724 10.393 7.558 16.062 9.448 10.865 4.251 22.675 5.196 34.485 4.724 11.81 0 23.147-1.89 33.54-6.141 5.196-1.89 10.392-4.252 15.116-8.976 4.724-4.251 9.448-11.81 9.448-20.313V814.883c0-122.823-117.154-218.72-258.873-218.72zm0 397.757c41.099 0 77.946 10.865 103.455 26.454 25.037 15.59 37.792 34.957 37.792 54.798 0 19.368-12.755 38.736-37.792 54.798-25.51 15.589-62.356 26.454-103.455 26.454-41.098 0-77.945-10.865-102.982-26.454-25.51-16.062-37.792-35.43-37.792-54.798 0-19.84 12.283-39.209 37.792-54.798 25.037-15.589 61.884-26.454 102.982-26.454zm0 0" transform="rotate(.882) scale(.00827)" fill="url(#j)" stroke-width="11.339" stroke-linecap="round" stroke-linejoin="round" stroke="#212121"/></svg>
